!! 00000] TT[00
!! NN
!!!OTL: Xiu he bao
!!!ARE: Asia, China,ˇJiangsu, Wuxi, SÅd)
!! Ethnic Group: Han
!! III, 483
!!!SCT: C0329
!!!YEM: Copyright 1995, estate of Helmut Schaffrath.
**kern
*ICvox
*Ivox
*M2/4
*k[]
*C:
{8.a
16cc
8dd
16ee
16dd
=1
16cc
16a
4g
16a
16cc
=2
8.e
16g
16a
16dd
16cc
16a
=3
16cc
16a
4.g}
=4
{8dd
8cc
8dd
8cc
=5
16cc
16dd
16a
16g
16e
16g
8e
=6
8g
16a
16g
8e
8g
=7
8cc
4.a}
=8
{16g
16e
16g
16a
8.cc
16a
=9
16g
16cc
16a
16g
16e
16g
8e
=10
16e
16g
16a
16cc
16a
16g
8e
=11
16g
16e
4d
16g
16e
=12
16d
16e
8g
16a
16g
16e
16d
=13
16c
16A
8d
4c}
==
!!!AGN: Xiaodiao, Shidiao, Jiandianhua diao, Chang Huahui, Siji, Lishi Deng
!! Nicht verwandt mit dem des Nordens!  Einige Verzierungen. Vorspiel
!!    weggelassen.
!!!ONB: ESAC (Essen Associative Code) Database: CHINA
!!!AMT: simple duple
!!!AIN: vox
!!!EED: Helmut Schaffrath
!!!EEV: 1.0
*-
